X: 20163
T: SEE WHAT A CONQUEST LOVE HAS MADE.
O: Thomas Tudway.--From "Playford's Collection."
Q: "Moderate."
%R: march, reel
B: W. Hamilton "Universal Tune-Book" Vol. 2 Glasgow 1846 p.16 #3
S: http://s3-eu-west-1.amazonaws.com/itma.dl.printmaterial/book_pdfs/hamiltonvol2web.pdf
Z: 2016 John Chambers <jc:trillian.mit.edu>
N: Only 11 bars.
M: C
L: 1/8
K: A
%%stretchstaff 0
% - - - - - - - - - - - - - - - - - - - - - - - - -
[|\
e2e>g ^g2a2 | f2d2 B3B | c3B c2A | g>fe2 f3e |\
(d>cdB) c3d | ed2e e2^f2 | g2^f2 (gf2)e |\
e4 c2c>d | e2a2 ged>^c | d3e c2B2 | (cB2)A A4 |]
% - - - - - - - - - - - - - - - - - - - - - - - - -

%%sep 1 1 500
%%sep 1 1 500

